X:1
T: The Silver Primrose
N:
C:"The Lydian Jig" (1997) by Stapledon
S:
A:
O:
R:
M:6/8
K:G
I:speed 150
%W: A1
% voice 1 (1 lines, 39 notes)
K:G
M:6/8
L:1/16
d2 |d4 B2 G4 G2 A2 G2 F2 G6 D2 E2 F2 G2 A2 B2 c4 B2 A2 B2 c2 |d2 f2 d2 B4 d2 c2 e2 c2 A4 F2 G2 A2 B2 A2 G2 F2 G6G4 d2 |
%W: A2
% voice 1 (1 lines, 38 notes)
d4 B2 G4 G2 A2 G2 F2 G6 D2 E2 F2 G2 A2 B2 c4 B2 A2 B2 c2 |d2 f2 d2 B4 d2 c2 e2 c2 A4 F2 G2 A2 B2 A2 G2 F2 G6G4 D2 |
%W: B1
% voice 1 (1 lines, 40 notes)
D2 E2 F2 G4 G2 E2 F2 G2 A4 A2 F2 G2 A2 B2 c2 d2 e4 d2 c2 B2 A2 |f2 e2 f2 d2 e2 f2 g4 d2 B4 e2 d2 B2 G2 G2 A2 F2 G6G4 D2 |
%W: B2
% voice 1 (1 lines, 39 notes)
D2 E2 F2 G4 G2 E2 F2 G2 A4 A2 F2 G2 A2 B2 c2 d2 e4 d2 c2 B2 A2 |f2 e2 f2 d2 e2 f2 g4 d2 B4 e2 d2 B2 G2 G2 A2 F2 G6G4 ||
